X:1
T:Gesammelte Motetten
T:Gnädig und barmherzig ist der Herr
T:Johann Heinrich Rolle
T:Gnädig und barmherzig ist der Herr
T:Psalm 145,8-10
T:CPDL - Creative Commons Attribution Non Commercial 3.0
T:CPDL - Creative Commons Attribution Non Commercial 3.0
T:CPDL - Creative Commons Attribution Non Commercial 3.0
T:CPDL - Creative Commons Attribution Non Commercial 3.0
T:CPDL - Creative Commons Attribution Non Commercial 3.0
T:CPDL - Creative Commons Attribution Non Commercial 3.0
T:CPDL - Creative Commons Attribution Non Commercial 3.0
T:CPDL - Creative Commons Attribution Non Commercial 3.0
T:CPDL - Creative Commons Attribution Non Commercial 3.0
T:CPDL - Creative Commons Attribution Non Commercial 3.0
C:Johann Heinrich Rolle
Z:CPDL - Creative Commons Attribution Non Commercial 3.0
%%score [ 1 2 3 4 ]
L:1/8
Q:1/4=190
M:4/4
K:G
V:1 treble nm="Sopran"
V:2 treble nm="Alt"
V:3 treble-8 nm="Tenor"
V:4 bass nm="Bass"
V:1
"^Tempo di Allabreve""^Solo" G4"^Moderato" G4 | G4 G4 | G8 | G4 e4 | A4 (B3 c/d/) | d4{d} (cB c2) | %6
w: Gnä- dig|und barm-|her-|zig, barm-|her- zig _ _|ist der _ _|
 (B8 | B2) z2 |"^Tutti" g4 | A4 (B3 c/d/) | d4 (cB c2) | B8- | B2 z2 (d2 B2) | (A2 G2) G4 | %14
w: Herr,|_|barm-|her- zig _ _|ist der _ _|Herr;|_ ge- *|dul- * dig,|
 z4 (d2 B2) | (A2 G2) G4 | z4 g4- | g4 e4 | c4 B4 | B4 A4- | A4 g4 | g4 e4 | c4 B4 | (c4 B4) | %24
w: ge- *|dul- * dig|und|_ von|gro- ßer|Gü- te,|_ von|gro- ßer,|gro- ßer|Gü- *|
 !fermata!A8 | z4"^Solo" d4 | ^c4 d4 | A4 f4 | ^c4 d4 | A4 f4 | ^c4 d4 | e2 g2 f2 a2 | (g2 f2) e4 | %33
w: te.|Der|Herr ist|al- len|gü- tig|und er-|barmt sich|al- ler sei- ner|Wer- * ke,|
 e4"^Tutti" ^c2 e2 | d4 d4 | d4 F4 | F4 E4- | !fermata!E4 z4 || %38
w: _ al- ler,|al- ler|sei- ner|Wer- ke.|_|
[Q:1/4=95]"^Allegro moderato""^Tutti" z!ff! A !>!d2- d^c/B/ AG | FD d2- d^c/B/ AG | %40
w: Es sol- * * * len dir|dan- ken, Herr, _ al- le dei- ne|
 FD z d d =c/B/ cc | c2 B2 A4 | G2 z4 z2 | z8 | z8 | z8 | z8 | z4 d4 | d4 d4 | d4 =f4 | e4 d4 | %51
w: Wer- ke und dei- ne _ Hei- li-|gen dich lo-|ben.|||||Es|dan- ken|dir die|Him- mels-|
 c8 | z4 d4 | B4 G4 | B4 ^c4 | (d4 e4) | d4 z4 | z4 d4 | d4 d4 | d4 =f4 | e4 d4 | c8 | z4 d4 | %63
w: heer,|o|Herr- scher|al- ler|Thro- *|nen|und|die auf|Er- den,|Luft und|Meer|in|
 B4 G4 | B4 ^c4 | (d4 e4) | d4 z4 | z4 d4 | g4 f4 | e4 f4 | g4 (f2 e2) | d8 | z4 d4 | g4 d4 | %74
w: dei- nem|Schat- ten|woh- *|nen,|die|prei- sen|dei- ne|Schöp- fer- *|macht,|die|al- les,|
 e4 B4 | d4 c4 | (B4 ^c4 | d8) | z4 c4 | B4 A4 | B4 d4 | (B4 A4) | G4 G4 | G8- | G8- | %85
w: al- les|wohl be-|dacht, _|_|gebt|un- serm|Gott die|Eh- *|re, die|Eh-||
 G4-[Q:1/4=60]"^Adagio" G2 F2 | !fermata!G8 |] %87
w: |re.|
V:2
 D4 D4 | E4 =F4 | E8 | E4 G4 | F4 G4 | G4 F4 | (G8 | G2) z2 | G4 | F4 G4 | G4 F4 | G8- | G2 z2 z4 | %13
w: ||||||||barm-|her- zig|ist der|Herr;|_|
 z4 G4 | (F2 G2) G4 | z4 G4 | (F2 G2) D4 |"^und" E4 G4 | A4 G4 | G4 F4- | F4 G4 | G4 G4 | A4 G4 | %23
w: ge-|dul- * dig,|ge-|dul- * dig|||||||
 (A4 G4) | !fermata!F8 | z4 F4 | E4 F4 | E4 D4 | G4 F2 z2 | A2 A2 A2 A2 | (G4 F2) A2 | A4 A4 | %32
w: ||||||und er- barmt sich|al- * ler|sei- ner|
 A4 A4 | A4 E2 G2 | F4 F4 | F4 F4 | F4 E4- | !fermata!E4 z4 || z!ff! A !>!d2- d^c/B/ AG | %39
w: ||||||Es sol- * * * len dir|
 FD d2- d^c/B/ AG | FD F2 G3 A/G/ | FFGG (G2 F2) | G2 B2 A4 | G2 z2 z A d2- | d^c/B/ AG FD d2- | %45
w: dan- ken, Herr, _ al- le dei- ne|Wer- ke und dei- ne _|Hei- li- gen dich lo- *|be, dich lo-|ben, es sol-|* * * len dir dan- ken, Herr,|
 d^c/B/ AG FBAG | FD B2 E2 A2 | D>D DB (A2 F2) | G2 z B AAFA | G2 z2 z4 | z G c2- cB/A/ G=F | %51
w: _ al- le dei- ne Wer- ke, dei- ne|Wer- ke und dei- ne|Hei- li- gen dich lo- *|ben, und dei- ne Hei- li-|gen,|es sol- * * * len dir|
 EG _B2- B A/G/ AG | ^FA c2- c =B/A/ dc | BA G2 z4 | z D G2- GF/E/ AG | FE F2 GGAA | A2 A2 A4 | %57
w: dan- ken al- * le * dei- ne|Wer- ke, al- * le * dei- ne|Wer- * ke,|es sol- * * * len dir|dan- ken, Herr, al- le dei- ne|Wer- ke, Herr,|
 z DDE FEFD | (^G3 A B G2 A | BA)^GB d4 | c4 B4 | AE (A2- AB AG | FEFG A2 F2) | G4 z4 | %64
w: und dei- ne Hei- li- gen dich|lo- * * * *|* * ben, dich lo-||ben, dich lo- * * * *||ben,|
 z D G2- GF/E/ AG | FE F2 G2 A2 | z A d2- d ^c/B/ AG | FF F4 G2 | z2 GB AAAA | A2 A2 AAAA | %70
w: es sol- * * * len dir|dan- ken, dir dan- ken,|und dei- * ne _ Hei- li-|gen dich lo- ben,|dei- ne Hei- li- gen dich|lo- ben, dei- ne Hei- li-|
 B2 B2 (A2 G2) | FB =c2- cB/A/ BG | DF A2 A G/F/ GA | BA B2 z GGG | G>G GG G2 G2 | z FFG A>A AA | %76
w: gen dich lo- *|ben, es sol- * * * len dir|dan- ken, Herr, al- le _ dei- ne|Wer- * ke und dei- ne|Hei- li- gen dich lo- ben,|und dei- ne Hei- li- gen dich|
 G4 G2 z2 | z AAA B>B BB | AGFG A4- | (A2 G4) F2 | z GGG A>A AF | (GD G2- GF/E/ FE | D4 E4 | %83
w: lo- ben,|und dei- ne Hei- li- gen dich|lo- * ben, dich lo-|* * ben,|und dei- ne Hei- li- gen dich|lo- * * * * * * *||
 D4 E4 | DB,CD E>=FEC | D>EDB, C4) | !fermata!B,8 |] %87
w: |||ben.|
V:3
 B4 B4 | B4 B4 | c8 | c4 c4 | d4 d4 | e4 d4 | (d8 | d2) z2 | d4 | d4 d4 | e4 d4 | d8- | d2 z2 z4 | %13
w: Gnä- dig|und barm-|her-|zig, barm-|her- zig|ist der|Herr,|_|barm-|her- zig|ist der|Herr;|_|
 z4 d4 | (c2 B2) B4 | z4 d4 | (c2 B2) B4 | c4 c4 | e4 e4 | d4 d4- | d4 d4 | e4 c4 | e4 e4 | d8 | %24
w: ge-|dul- * dig,|ge-|dul- * dig|und von|gro- ßer|Gü- te,|_ von|gro- ßer,|gro- ßer|Gü-|
 !fermata!d8 | z8 | z4 d4 | ^c4 d4 | A4 f4 | ^c4 d4 | A4 f4 | ^c2 e2 d2 f2 | (e2 d2) ^c4 | %33
w: te.||Der|Herr ist|al- len|gü- tig|und er-|barmt sich sei- ner|Wer- * ke,|
 ^c4 A2 A2 | d4 d4 | B4 d4 | d4 ^c4- | !fermata!c4 z4 || z!ff! A !>!d2- d^c/B/ AG | %39
w: _ al- ler,|al- ler|sei- ner|Wer- ke.|_||
 FD d2- d^c/B/ AG | FD z4 z2 | z d g2- gf/e/ dc | BG g2- gf/e/ dc | BG e2 A2 A2 | %44
w: ||es sol- * * * len dir|dan- ken, Herr, _ al- le dei- ne|Wer- ke und dei- ne|
 G G/A/ B^c (df/e/ f2 | e4 d2) ^c2 | z ddd d =c/B/ cc | (cB/A/ B)G d2 z2 | z8 | z BBc d>d dd | %50
w: Hei- li- * gen dich lo- * * *|* * ben,|und dei- ne Hei- li- * gen dich|lo- * * * ben, Herr,||und dei- ne Hei- li- gen dich|
 (c2 G2) A2 B2 | c2 z2 z ccc | d>d d2 z4 | z ddd d>d d2 | z2 G2 A2 A2 | d2 z4 ^c2 | d2 f2 e2 ^ce | %57
w: lo- * ben, dich,|Herr, und dei- ne|Hei- li- gen,|und dei- ne Hei- li- gen|dich lo- ben,|Herr, dir|dan- ken, Herr, dei- ne|
 d2 D2 z4 | z8 | z8 | z Acd e>e ee | (ed c4) cc | d2 d2 z4 | z ddd d>d d2 | z2 G2 A2 A2 | %65
w: Wer- ke,|||und dei- ne Hei- li- gen dich|lo- * * ben, dich|lo- ben,|und dei- ne Hei- li- gen|dich lo- ben,|
 d2 z4 ^c2 | d2 ff e3 ^c | d2 dd d^cBA | B2 ^cc dddd | ^c2 cc d2 d2 | z4 z AB^c | d>d dF (G2 g2-) | %72
w: Herr, dich|Herr, al- le dei- ne|Wer- ke und dei- ne Hei- li-|gen, dei- ne Hei- li- gen dich|lo- ben, dich lo- ben,|und dei- ne|Hei- li- gen dich lo- *|
 gf/e/ fe d2 d2 | z8 | z ccd e>e e2 | z4 z Acd | e>e ee e4 | d2 ff g>g gg | fede f2 d2 | %79
w: * * * ben, dich lo- ben,||und dei- ne Hei- li- gen,|und dei- ne|Hei- li- gen dich lo-|ben, dei- ne Hei- li- gen dich|lo- * ben, dich lo- ben,|
 z ddd d>d dd | d2 d2 z4 | z ddd d>d dc | (B4 c4 | B4 c4 | BGAB c>dcA | B>cBG A4) | !fermata!G8 |] %87
w: und dei- ne Hei- li- gen dich|lo- ben,|und dei- ne Hei- li- gen dich|lo- *||||ben.|
V:4
 G,4 F,4 | E,4 D,4 | C,8 | C,4 C,4 | C4 B,4 | A,4 D,4 | (G,8 | G,2) z2 | B,4 | C4 B,4 | A,4 D,4 | %11
w: |||||||||||
 G,8- | G,2 z2 z4 | z4 B,4 | (A,2 G,2) G,4 | z4 B,4 | (A,2 G,2) G,4 | C,4 C,4 | C,4 ^C,4 | %19
w: ||||||||
 D,4 D,4- | D,4 B,4 | C4 C,4 | C,4 ^C,4 | D,8 | !fermata!D,8 | z8 | z8 | z2 A,2 A,2 A,2 | %28
w: ||||||||Der Herr ist|
 A,2 A,2 A,2 A,2 | A,4 A,,4 | A,2 A,2 A,2 A,2 | A,2 A,2 A,2 A,2 | A,4 A,,4 | A,,4 z4 | %34
w: al- len, al- len|gü- tig|und er- barmt sich|al- ler sei- ner|Wer- ke,|_|
 z2 D,2 D2 B,2 | ^G,2 G,2 G,2 G,2 | A,4 A,,4- | !fermata!A,,4 z4 || z!ff! A, !>!D2- D^C/B,/ A,G, | %39
w: er- barmt sich|al- ler sei- ner|Wer- ke.|_|Es sol- * * * len dir|
 F,D, D2- D^C/B,/ A,G, | F,D, B,2 E,2 A,2 | D,D,D,D, D,2 D,2 | z G,G,G, CA, D2 | %43
w: dan- ken, Herr, _ al- le dei- ne|Wer- ke und dei- ne|Hei- li- gen dich lo- ben,|und dei- ne Hei- li- gen,|
 z G,G,G, G, F,/E,/ F,F, | E,4 D,2 z B, | (G,2 A,2) D,2 z2 | z8 | z D, G,2- G,F,/E,/ D,C | %48
w: und dei- ne Hei- li- * gen dich|lo- ben, dich|lo- * ben,||es sol- * * * len dir|
 B,A, G,2- G,F,/E,/ D,C | B,A, G,2 z G,A,B, | C2 E,2 =F,2 G,2 | (C,2 z E, =F,3 E, | %52
w: dan- ken, Herr, _ al- le dei- ne|Wer- * ke und dei- ne|Hei- li- gen dich|lo- * * *|
 D,3 E, ^F,E,F,D, | G,F,G,A, B,CB,A,) | G,2 z4 z2 | z A, D2- D^C/B,/ A,G, | F,D, D2- D^C/B,/ A,G, | %57
w: ||ben,|es sol- * * * len dir|dan- ken, Herr, _ al- le dei- ne|
 F,E, D,2 z4 | z B,B,A, ^G,B,B,A, | (^G,F, E,2 z E, F,G, | A,E, A,2- A,^G,/F,/) G,E, | %61
w: Wer- * ke,|und dei- ne Hei- li- gen dich|lo- * * * * *|* * * * * * ben, dich|
 (A,3 =G, F,G,F,E, | D,^C,D,E, F,E,F,D, | G,F,G,A, B,CB,A,) | G,4 z4 | z A, D2- D^C/B,/ A,G, | %66
w: lo- * * * * *|||ben,|es sol- * * * len dir|
 F,D, B,2 G,G,A,A, | D,2 D^C B,A,G,F, | E,2 E,E, F,F,F,F, | G,2 G,G, F,2 F,2 | %70
w: dan- ken, Herr, al- le dei- ne||||
 z E,F,G, A,>A, A,A, | D2 D,2 z4 | z A, C2- CB,/A,/ B,A, | G,F,G,A, B,A, B,G, | C2 z2 z E,E,E, | %75
w: und dei- ne Hei- li- gen dich|lo- ben,|es sol- * * * len dir|dan- * ken, dir dan- * ken _|Herr und dei- ne|
 D,>D, D,E, A,2 z2 | z E,E,E, A,>B, A,G, | (F,A, D2- DB,/A,/ B,G,) | D,4 z D,E,F, | G,G,B,C (D3 C | %80
w: Hei- li- gen dich, Herr,|und dei- ne Hei- li- gen dich|lo- * * * * * * *|ben, und dei- ne|Hei- li- gen dich lo- *|
 B,A,B,G, F,E,F,D, | G,4) D,4 | z G,G,=F, E,D,E,C, | %83
w: |* ben,|und dei- ne Hei- li- gen dich|
"^CPDL - Creative Commons Attribution Non Commercial 3.0" (G,>A,G,=F, E,D,E,C, | G,8- | G,4 D,4) | %86
w: lo- * * * * * * *|||
 !fermata!G,,8 |] %87
w: ben.|

